X:267
T:Reel 267
M:4/4
K:Gmaj
L:1/8
c|BddB dBcB|ABcB ABcA|Bddf gfge|dBcA BGGc|BddB cBcd|A2cA BGAc|Bddf edcB|cedc BGG|f|g2dB GBdB|cedB cAAc|Bdde BcdB|cedc BGGf|g2dB GBdB|cBab fedc|Bdef gfge|dcBA GGG|
